symbolic/32x32/apps/ms-excel.svg

<svg xmlns="http://www.w3.org/2000/svg" width="32" height="32" version="1.1">
 <rect style="opacity:0.2" width="24" height="28" x="7" y="3" rx="1.4" ry="1.4"/>
 <path style="fill:#185c37" d="M 31,23 V 28.6 C 31,29.376 30.376,30 29.6,30 H 8.4 C 7.624,30 7,29.376 7,28.6 V 15 H 18 L 19,16 Z"/>
 <path style="fill:#21a366" d="M 8.4,2 H 19 L 31,9 V 17 H 20 L 19,16 7,9 V 3.4 C 7,2.6244 7.624,2 8.4,2 Z"/>
 <path style="fill:#33c481" d="M 19,2 H 29.6 C 30.376,2 31,2.6244 31,3.4 V 9 H 19 Z"/>
 <path style="fill:#107c41" d="M 19,16 H 31 V 23 H 19 Z M 7,9 H 19 V 16 H 7 Z"/>
 <path style="opacity:0.1" d="M 7,9 H 31 V 10 H 7 Z M 7,16 H 31 V 17 H 7 Z M 7,23 H 31 V 24 H 7 Z"/>
 <path style="opacity:0.2;fill:#ffffff" d="M 8.4,2 C 7.625,2 7,2.6248 7,3.4004 V 4.4004 C 7,3.6248 7.625,3 8.4,3 H 29.6 C 30.375,3 31,3.6248 31,4.4004 V 3.4004 C 31,2.6248 30.375,2 29.6,2 Z"/>
 <rect style="opacity:0.2" width="16" height="16" x="1" y="9" rx="1.4" ry="1.4"/>
 <rect style="fill:#0e6f3a" width="16" height="16" x="1" y="8" rx="1.4" ry="1.4"/>
 <path style="fill:#ffffff" d="M 4.5335,21 7.7692,15.986 4.8054,11 H 7.1904 L 9.136,14.863 11.2,11 H 13.39 L 10.349,15.958 13.467,21 H 11.137 L 9.0174,17.032 6.8766,21 Z"/>
</svg>

<svg xmlns="http://www.w3.org/2000/svg" width="32" height="32"><rect style="opacity:.2" width="24" height="28" x="7" y="3" rx="1.4" ry="1.4"/><path style="fill:#185c37" d="M31 23v5.6c0 .776-.624 1.4-1.4 1.4H8.4c-.776 0-1.4-.624-1.4-1.4V15h11l1 1z"/><path style="fill:#21a366" d="M8.4 2H19l12 7v8H20l-1-1L7 9V3.4C7 2.624 7.624 2 8.4 2z"/><path style="fill:#33c481" d="M19 2h10.6c.776 0 1.4.624 1.4 1.4V9H19z"/><path style="fill:#107c41" d="M19 16h12v7H19zM7 9h12v7H7z"/><path style="opacity:.1" d="M7 9h24v1H7zm0 7h24v1H7zm0 7h24v1H7z"/><path style="opacity:.2;fill:#fff" d="M8.4 2C7.625 2 7 2.625 7 3.4v1C7 3.625 7.625 3 8.4 3h21.2c.775 0 1.4.625 1.4 1.4v-1c0-.775-.625-1.4-1.4-1.4z"/><rect style="opacity:.2" width="16" height="16" x="1" y="9" rx="1.4" ry="1.4"/><rect style="fill:#0e6f3a" width="16" height="16" x="1" y="8" rx="1.4" ry="1.4"/><path style="fill:#fff" d="m4.534 21 3.235-5.014L4.805 11H7.19l1.946 3.863L11.2 11h2.19l-3.041 4.958L13.467 21h-2.33l-2.12-3.968L6.877 21z"/></svg>
